X:1
T:Proba me Deus
T:Constantijn Huygens
T:Proba me Deus
T:Psalmus 139:23,24
C:Constantijn Huygens
%%score 1 { ( 2 4 ) | ( 3 5 ) }
L:1/8
Q:1/4=60
M:4/4
K:D
V:1 treble nm="Soprano" snm="S"
V:2 treble nm="Organ" snm="Org."
V:4 treble 
V:3 bass 
V:5 bass 
V:1
 F4 F4 | F2 FF B4- | B2 A2 z2 z G | G2 GF F4 | !fermata!E2 F2 F2 FE | D2 D2 E2 FF | G2 GA Bc d2- | %7
w: Pro- ba,|pro- ba me, De-|* us, et|sci- to cor me-|um: in- ter- ro- ga|me, in- ter- ro- ga|me, et cog- no- sce se-|
 d2 AA A4 | A8 ::[M:3/4] d4 cB | A3 B EA |[M:4/4] F2 z F G2 AA | B3 c d e2 ^d | e4 ^A2 B2 | c4 z4 | %15
w: * mi- tas me-|as.|Et vi- de,|_ et vi- de,|si, si vi- a in-|i- qui- ta- * tis|_ est in|me.|
[M:3/4] F3 F F2 | ^G6 | A3 E G2 | F2 z d cB | ^A2 z F FE |[M:4/4] F4 z2 C2 | D2 E2 F3 ^G | %22
w: Et de- duc|me,|et de- duc|me in vi- a,|_ in vi- a,|_ in|vi- * * *|
 ^A2 B2 c3 B/c/ | d2 e2 f4 | c2 d2 c4 | B8 :| %26
w: ||a ae- ter-|na.|
V:2
 [B,DF]4 [^A,CF]4 | [B,DF]4 [B,DG]4 | [CF]4 [B,EG]4 | [B,EG]2 [A,CF]2 [A,DF]4 | [A,CE]2 [A,CF]6 | %5
 [G,B,D]6 [A,DF]2 | [B,EG]4 [DFB]4 | E2 F2 [DE-]2 [CE]2 | [A,DF]8 ::[M:3/4] [FA]4 [CEG]2 | %10
 [DF]2 [EG]2 [CEA]2 |[M:4/4] [DF]4 [DB]4 | [E^GB]4 [DFB]2 [^DFA]2 | [E^G]4 [CF]4 | %14
 [C-F^A]4 [C-A]2 [C^G]2 |[M:3/4] [^A,CF]4 [^DF]2 | E4 D2 | [A,CE]6 | [A,DF]4 [B,E^G]2 | %19
 [CF^A]4 [EGB]2 |[M:4/4] [F^Ac]8 | D2 E2 F3 ^G | ^A2 B2 c4 | d2 e2 f4 | c2 d2 c4 | [^DF]8 :| %26
V:3
 B,4 ^A,4 | B,2 A,2 G,4 | F,4 E,4- | E,2 C,2 D,4 | A,,2 A,2 F,4 | G,6 F,2 | E,2 D,C, B,,4 | %7
 C,2 D,2 A,,4 | D,8 ::[M:3/4] D,4 E,2 | F,3 G, A,2 |[M:4/4] B,6 A,2 | ^G,2 G,2 F,4 | %13
 E,3 D, C,2 B,,2 | F,8 |[M:3/4] F,4 B,,2 | E,6 | A,,6 | D,4 E,2 | F,4 G,2 |[M:4/4] F,4 F,,4 | F,8 | %22
 F,8 | F,8 | F,8 | x8 :| %26
V:4
 x8 | x8 | x8 | x8 | x8 | x8 | x8 | A,8 | x8 ::[M:3/4] x6 | x6 |[M:4/4] x8 | x8 | x8 | x8 | %15
[M:3/4] x6 | B,6 | x6 | x6 | x6 |[M:4/4] x8 | F2 C2 D2 E2 | F2 ^G2 ^A4 | [FB]2 [Fc]2 [Fd]4 | %24
 [F^A]2 [FB]4 [FA]2 | B8 :| %26
V:5
 x8 | x8 | x8 | x8 | x8 | x8 | x8 | x8 | x8 ::[M:3/4] x6 | x6 |[M:4/4] x8 | x8 | x8 | x8 | %15
[M:3/4] x6 | x6 | x6 | x6 | x6 |[M:4/4] x8 | F,,8 | F,,8 | F,,8 | F,,8 | B,,8 :| %26

